X: 021021
T: Boys of Tralee
S: Darley & McCall Collection 
Z: B.Black 
L: 1/8
M: 6/8
R: jig
K: G
G/E/|DEF GAB|e/f/gd efg|dBG AGF|GAB A2 G/E/|
DEF GAB|e/f/gd efg|dBG AGF|GBA G2 :|
e/f/|gfe agf|gfg edB|e/f/gf gdB|A2G A2G/e/|
DEF GAB|e/f/gd efg|dBG AGF|GBA G2 :|
